actions/24/edit-clone-unlink.svg

<?xml version="1.0" encoding="UTF-8" standalone="no"?>
<svg
   width="24"
   height="24"
   version="1.1"
   id="svg9"
   sodipodi:docname="edit-clone-unlink.svg"
   inkscape:version="1.1.2 (0a00cf5339, 2022-02-04)"
   xmlns:inkscape="http://www.inkscape.org/namespaces/inkscape"
   xmlns:sodipodi="http://sodipodi.sourceforge.net/DTD/sodipodi-0.dtd"
   xmlns="http://www.w3.org/2000/svg"
   xmlns:svg="http://www.w3.org/2000/svg">
  <sodipodi:namedview
     id="namedview11"
     pagecolor="#000000"
     bordercolor="#666666"
     borderopacity="1.0"
     inkscape:pageshadow="2"
     inkscape:pageopacity="0"
     inkscape:pagecheckerboard="0"
     showgrid="false"
     inkscape:zoom="28.416667"
     inkscape:cx="11.982405"
     inkscape:cy="11.964809"
     inkscape:window-width="1886"
     inkscape:window-height="967"
     inkscape:window-x="0"
     inkscape:window-y="29"
     inkscape:window-maximized="1"
     inkscape:current-layer="g7" />
  <defs
     id="defs3">
    <style
       id="current-color-scheme"
       type="text/css">
   .ColorScheme-Text { color:#eeeeec; } .ColorScheme-Highlight { color:#367bf0; } .ColorScheme-NeutralText { color:#ffcc44; } .ColorScheme-PositiveText { color:#3db47e; } .ColorScheme-NegativeText { color:#dd4747; }
  </style>
  </defs>
  <g
     transform="translate(4,4)"
     id="g7">
    <path
       style="fill:currentColor"
       class="ColorScheme-Text"
       d="M 6.4576334,6 6,6.494989 V 15 h 9 V 6 Z M 10.5,7 c 0,0 1.5,0 1.5,1.5 V 10 h 0.5 c 0.5,0 0.5,0.5 0.5,0.5 v 3 c 0,0 0,0.5 -0.5,0.5 h -4 C 8,14 8,13.5 8,13.5 v -3 C 8,10.5 8,10 8.5,10 H 11 V 8.5 C 11,8.5 11,8 10.5,8 10,8 10,8.5 10,8.5 V 9 H 9 V 8.5 C 9,7 10.5,7 10.5,7 Z M 1,1 v 9 H 5 V 5.4392738 L 5.5441744,5 V 5 H 10 V 1 Z"
       id="path5"
       sodipodi:nodetypes="ccccccccscsccssccsccscccscccccccccc" />
  </g>
</svg>

<svg xmlns="http://www.w3.org/2000/svg" width="24" height="24" version="1.1">
 <defs>
  <style id="current-color-scheme" type="text/css">
   .ColorScheme-Text { color:#eeeeec; } .ColorScheme-Highlight { color:#367bf0; } .ColorScheme-NeutralText { color:#ffcc44; } .ColorScheme-PositiveText { color:#3db47e; } .ColorScheme-NegativeText { color:#dd4747; }
  </style>
 </defs>
 <g transform="translate(4,4)">
  <path style="fill:currentColor" class="ColorScheme-Text" d="M 6,6 V 15 H 15 V 6 Z M 10.5,7 C 10.5,7 12,7 12,8.5 V 10 H 12.5 C 13,10 13,10.5 13,10.5 V 13.5 C 13,13.5 13,14 12.5,14 H 8.5 C 8,14 8,13.5 8,13.5 V 10.5 C 8,10.5 8,10 8.5,10 H 11 V 8.5 C 11,8.5 11,8 10.5,8 10,8 10,8.5 10,8.5 V 9 H 9 V 8.5 C 9,7 10.5,7 10.5,7 Z M 1,1 V 10 H 5 V 5 H 10 V 1 Z"/>
 </g>
</svg>
